!!!COM: Music21
!!!OTL: polka_Gortnatubrid--The
!!!OMV: polka_Gortnatubrid--The
**kern
*clefG2
*k[f#c#g#]
*M2/4
=1
16.ff#LL
32eeJJk
=||
16ddLL
16b
16cc#
16aJJ
4ryy
=
16bLL
16cc#
16dd
16eeJJ
4ryy
=
16ff#LL
16dd
16ee
16ddJJ
4ryy
=
16cc#LL
16a
16.ff#
32eeJJk
4ryy
=
16ddLL
16b
16cc#
16aJJ
4ryy
=
16bLL
16cc#
16dd
16eeJJ
4ryy
=
16ff#LL
16dd
16ee
16cc#JJ
4ryy
!!linebreak:original
=
8bL
16.ff#L
32eeJJk
4ryy
=||
16ddLL
16b
16cc#
16aJJ
4ryy
=
16bLL
16cc#
16dd
16eeJJ
4ryy
=
16ff#LL
16dd
16ee
16ddJJ
4ryy
=
16cc#LL
16a
16.ff#
32eeJJk
4ryy
=
16ddLL
16b
16cc#
16aJJ
4ryy
=
16bLL
16cc#
16dd
16eeJJ
4ryy
!!linebreak:original
=
16ff#LL
16dd
16ee
16cc#JJ
4ryy
=
8bL
8bJ
4ryy
=||
8ff#L
16bbL
16aaJJ
4ryy
=
16ff#LL
16ee
16.ff#
32eeJJk
4ryy
=
16ddLL
16b
16cc#
16aJJ
4ryy
=
16bLL
16cc#
16dd
16eeJJ
4ryy
=
16ff#LL
16bb
16aa
16ggnJJ
4ryy
!!linebreak:original
=
16ff#LL
16ee
16.ff#
32eeJJk
4ryy
=
16ddLL
16b
16cc#
16aJJ
4ryy
=
8bL
8bJ
4ryy
=||
*M2/4
16.ff#LL
32eeJJk
=||
16ddLL
16b
16cc#
16aJJ
4ryy
=
16bLL
16cc#
16dd
16eeJJ
4ryy
=
16ff#LL
16dd
16ee
16ddJJ
4ryy
!!linebreak:original
=
16cc#LL
16a
16.ff#
32eeJJk
4ryy
=
16ddLL
16b
16cc#
16aJJ
4ryy
=
16bLL
16cc#
16dd
16eeJJ
4ryy
=
16ff#LL
16dd
16ee
16cc#JJ
4ryy
=
8bL
16.ff#L
32eeJJk
4ryy
=||
16ddLL
16b
16cc#
16aJJ
4ryy
=
16bLL
16cc#
16dd
16eeJJ
4ryy
!!linebreak:original
=
16ff#LL
16dd
16ee
16ddJJ
4ryy
=
16cc#LL
16a
16.ff#
32eeJJk
4ryy
=
16ddLL
16b
16cc#
16aJJ
4ryy
=
16bLL
16cc#
16dd
16eeJJ
4ryy
=
16ff#LL
16dd
16ee
16cc#JJ
4ryy
=
8bL
8bJ
4ryy
=||
8ff#L
16bbL
16aaJJ
4ryy
=
16ff#LL
16ee
16.ff#
32eeJJk
4ryy
!!linebreak:original
=
16ddLL
16b
16cc#
16aJJ
4ryy
=
16bLL
16cc#
16dd
16eeJJ
4ryy
=
16ff#LL
16bb
16aa
16ggnJJ
4ryy
=
16ff#LL
16ee
16.ff#
32eeJJk
4ryy
=
16ddLL
16b
16cc#
16aJJ
4ryy
=
8bL
16.ff#L
32eeJJk
4ryy
=||
*-
